X: 1
T: Bonny Lass of Ballantrae
R: Reel
B: The Athole Collection
C: Athole Collection
C: arr. T. Traub, 4-25-2013
M: C|
L: 1/8
K: F
|: d|"F"cFAc "Bb"dfef|"F"cFAF "Gm"GDDd|"F"cFAc "Bb"dfeg|"C"afce "F"f2f:|
c|"F"fcfa "C"gceg|"F"f/g/a gf "C"ecce|"F"fcfa "Bb"gcgb|"C"afce "F"f2 fc|
"F"fcfa "C"gceg|"Dm"f/g/a gf "C"eccf|"Bb"dBfd "F"cFAc|"C"dfeg "F"f2f |]
